src/images/thumbnails/part-1.svg

<svg version="1.1" id="Layer_1" xmlns="http://www.w3.org/2000/svg" xmlns:xlink="http://www.w3.org/1999/xlink" x="0px" y="0px"
	 width="100%" viewBox="0 0 635 635" enable-background="new 0 0 635 635" xml:space="preserve">
<path fill="#FFFFFF" opacity="1.000000" stroke="none" 
	d="
M353.000000,636.000000 
	C236.666687,636.000000 120.833351,635.980530 5.000156,636.095215 
	C1.576337,636.098572 0.903874,635.423706 0.905598,632.000000 
	C1.010828,423.000092 1.010813,214.000137 0.905632,5.000224 
	C0.903909,1.577023 1.575923,0.903861 4.999870,0.905585 
	C213.999786,1.010822 422.999725,1.010811 631.999634,0.905649 
	C635.422546,0.903927 636.096130,1.575559 636.094421,4.999757 
	C635.989136,213.999664 635.989197,422.999603 636.094360,631.999512 
	C636.096069,635.422180 635.425354,636.100159 632.000305,636.095703 
	C539.166992,635.975708 446.333466,636.000000 353.000000,636.000000 
z"/>
<path fill="#1C1B1D" opacity="1.000000" stroke="none" 
	d="
M231.979553,341.922668 
	C224.899612,333.203003 221.590210,323.392303 220.023331,312.864471 
	C219.727448,310.876465 220.399063,308.096436 216.520142,310.321991 
	C213.688782,311.946503 211.451294,309.795319 210.029129,307.316895 
	C207.900787,303.607727 207.216919,299.453003 207.345734,295.283264 
	C208.147659,269.324860 215.454437,245.790222 234.057938,226.837204 
	C249.415161,211.191452 268.805237,203.770462 290.092224,200.783936 
	C305.830933,198.575821 321.599731,198.463425 337.357880,200.954468 
	C344.091125,202.018829 350.947693,201.699203 357.723785,202.733795 
	C410.171661,210.741653 427.462280,254.649139 423.955231,288.983917 
	C423.530060,293.146179 422.544952,297.194305 420.718201,300.966919 
	C418.563751,305.416290 415.203339,307.998077 409.539612,307.260925 
	C402.120819,306.757629 400.101288,300.816803 396.734131,295.800934 
	C395.381439,296.840668 394.945496,298.489899 394.042328,299.744019 
	C388.773743,307.059937 380.216217,307.191895 374.865509,299.820343 
	C370.550751,293.876068 370.119965,286.755493 369.782196,279.790192 
	C369.516418,274.309845 369.589630,268.827789 368.679657,263.383392 
	C367.577332,256.787872 365.814941,255.980438 360.657349,260.139618 
	C358.713898,261.706848 357.318298,261.513336 355.419464,260.028595 
	C351.541016,256.995972 349.993317,257.469910 348.236389,262.137512 
	C345.815552,268.568970 344.678223,275.267120 344.260132,282.130280 
	C343.884644,288.294067 343.151581,294.359619 338.885193,299.420868 
	C332.106232,307.462769 320.364685,305.017090 317.739014,295.918182 
	C317.493500,296.537994 317.818237,295.498810 317.681732,295.852875 
	C314.488861,304.132416 308.154419,307.342804 299.687744,307.189545 
	C298.687683,307.171478 297.397156,307.204529 296.817017,306.533722 
	C292.219604,301.217926 288.611115,304.364777 283.974365,307.000916 
	C279.020203,309.817535 273.307159,308.911621 268.125427,305.155273 
	C265.035675,303.299103 265.413788,299.569672 262.782990,297.332947 
	C260.292877,301.328918 259.073639,307.090973 253.082352,306.684479 
	C247.521210,306.307129 246.961166,300.893524 245.024673,296.518951 
	C241.637085,299.730682 240.578140,305.333496 234.819168,305.122681 
	C229.568039,304.930450 227.090607,301.375275 225.131180,296.485077 
	C223.323776,299.562683 222.764038,302.337830 221.703079,305.163055 
	C223.445740,301.112610 225.664978,300.799530 228.999786,303.366394 
	C232.791122,306.284729 236.880356,306.740753 240.724106,303.071777 
	C243.527100,300.396149 245.573273,301.716797 247.792114,304.191193 
	C251.303055,308.106567 254.291031,308.427338 257.764038,305.788727 
	C263.312439,301.573334 263.312439,301.573334 268.643585,306.299988 
	C270.257843,316.633881 269.137665,326.504333 267.303101,336.320160 
	C266.811188,338.951935 265.571136,341.344147 263.771149,343.381226 
	C262.073486,345.302490 260.072540,346.277344 257.597382,344.906494 
	C250.094971,340.751251 242.321472,339.551788 234.104462,342.549652 
	C233.475555,342.779144 232.791870,342.571106 231.979553,341.922668 
z"/>
<path fill="#A6A6A6" opacity="1.000000" stroke="none" 
	d="
M267.515930,304.206665 
	C270.929688,304.990295 273.728027,307.254761 277.437439,307.220154 
	C283.568695,307.162872 287.855927,304.357880 290.875214,298.325653 
	C293.923920,304.483307 298.326874,307.665344 304.988464,305.767975 
	C310.932678,304.074890 314.994812,300.142426 317.549896,294.094360 
	C320.578827,299.956543 324.418945,304.457275 331.346619,302.745972 
	C338.689209,300.932251 341.253143,295.005219 342.206665,288.159302 
	C343.145081,281.421722 343.028534,274.544250 344.880493,267.927887 
	C345.372498,266.170197 345.784027,264.379059 346.428009,262.677277 
	C347.480438,259.896179 348.284058,256.480072 351.623108,255.878952 
	C355.075104,255.257492 355.810547,259.062836 357.712891,260.960632 
	C359.277618,261.061066 359.445190,259.622131 360.112183,258.798218 
	C361.587219,256.976105 362.976135,254.815216 365.710205,255.411911 
	C368.402649,255.999527 369.093964,258.561584 369.572906,260.784180 
	C370.625458,265.668884 370.878784,270.664185 370.898651,275.661530 
	C370.921906,281.505798 371.558746,287.280853 372.997345,292.946838 
	C373.655762,295.540161 374.711182,297.986115 376.475586,300.057281 
	C381.415802,305.856415 388.522949,305.526093 392.854706,299.158936 
	C394.317230,297.009155 395.338715,294.559326 396.842865,291.715210 
	C399.221954,298.291748 402.110565,304.014954 408.866669,307.005005 
	C408.993408,314.773712 407.860596,322.155365 406.261688,329.477570 
	C405.103149,334.783112 407.811768,339.560455 408.403748,344.644531 
	C411.232025,368.934204 402.342651,396.825165 370.016296,404.914337 
	C356.322296,408.341064 342.467163,409.645020 328.436920,408.944458 
	C324.078003,408.726807 322.283844,409.828156 322.884277,414.368561 
	C323.230865,416.989105 322.569672,419.758820 323.021210,422.346405 
	C324.160706,428.876556 320.774414,432.089722 315.305115,434.341553 
	C301.815887,439.895264 288.393005,439.380676 274.914093,434.375183 
	C270.432770,432.710999 268.625397,429.964661 268.939026,424.882233 
	C269.824677,410.530090 269.124268,396.264618 264.086426,382.540039 
	C261.576324,375.701721 261.585724,375.678101 255.141586,378.945068 
	C238.518845,387.372253 225.010574,380.976654 221.572845,362.918610 
	C220.349075,356.490234 223.267715,351.273346 227.256485,346.561554 
	C228.543945,345.040710 230.002380,343.664612 231.585602,341.884521 
	C241.179443,338.296661 250.290527,338.093628 258.861847,343.989105 
	C260.924805,345.408020 261.948761,343.616974 262.918213,342.414032 
	C265.748688,338.901978 266.398285,334.611603 266.966583,330.300568 
	C267.992645,322.517212 267.651154,314.689240 267.745422,306.412170 
	C267.430481,305.506531 267.324066,305.036346 267.515930,304.206665 
z"/>
<path fill="#030203" opacity="1.000000" stroke="none" 
	d="
M267.449615,303.635437 
	C267.709839,304.338257 267.737732,304.799377 267.717590,305.603607 
	C263.911835,302.192596 261.309845,303.763855 258.027863,307.150543 
	C254.640305,310.646179 249.867752,309.329834 246.254654,304.334778 
	C244.620865,302.076080 243.726242,301.967194 241.680511,303.759247 
	C236.745163,308.082520 233.053253,308.402069 227.967285,304.168243 
	C224.759995,301.498322 224.011948,302.679443 223.198502,305.708130 
	C222.872391,306.922333 222.712952,308.938843 221.054077,308.423767 
	C219.373154,307.901855 219.890320,305.911469 220.339035,304.548309 
	C221.271988,301.714172 222.354752,298.926971 223.456009,296.152252 
	C223.742874,295.429474 224.051590,294.471741 225.064850,294.470184 
	C226.289032,294.468323 226.785797,295.402313 226.903244,296.433807 
	C227.138245,298.497681 227.891754,300.299866 229.362564,301.755157 
	C232.765991,305.122742 237.788086,304.700043 240.503357,300.748322 
	C241.438416,299.387451 242.079193,297.823334 242.843048,296.346222 
	C243.381653,295.304626 243.882095,294.056549 245.337097,294.400482 
	C246.671997,294.716003 246.996536,295.946564 246.963806,297.165192 
	C246.916687,298.918243 247.653015,300.399506 248.429047,301.871063 
	C251.009003,306.763397 255.380539,307.110199 258.584106,302.686768 
	C258.777740,302.419373 258.847565,302.031860 259.085632,301.831909 
	C261.182648,300.070465 259.754089,294.956451 263.039734,295.520111 
	C265.995789,296.027252 266.033905,300.563477 267.449615,303.635437 
z"/>
<path fill="#131313" opacity="1.000000" stroke="none" 
	d="
M375.182312,369.968597 
	C376.584564,369.811157 377.729675,369.709412 377.994141,370.975494 
	C378.356110,372.708405 376.929565,373.230835 375.716949,373.734619 
	C364.547424,378.374847 352.975037,381.098175 340.813995,380.643280 
	C329.899506,380.234955 319.474182,377.649902 309.588074,372.995544 
	C308.084564,372.287689 305.287445,372.003052 306.333984,369.570435 
	C307.409271,367.070892 309.563446,368.984070 311.023560,369.646118 
	C332.228638,379.261261 353.469452,379.169495 375.182312,369.968597 
z"/>
<path fill="#131313" opacity="1.000000" stroke="none" 
	d="
M245.648514,358.226379 
	C241.437149,355.669891 237.708694,356.116180 234.092896,358.606201 
	C233.122833,359.274261 232.025757,360.106354 231.154602,358.644073 
	C230.391281,357.362793 231.383957,356.521576 232.291611,355.716949 
	C235.622009,352.764679 241.514023,352.167114 245.939362,354.382355 
	C250.124863,356.477509 252.855576,360.014038 255.275879,363.852325 
	C255.916733,364.868622 256.579803,366.044067 255.434448,366.975555 
	C254.156296,368.015045 253.429031,366.800232 252.622314,365.940674 
	C251.400192,364.638550 250.976791,361.456207 248.520844,362.771667 
	C246.233627,363.996796 246.727036,366.828491 247.259964,369.156586 
	C247.606506,370.670502 249.182129,372.785187 246.980453,373.425690 
	C244.567017,374.127838 244.569275,371.315704 243.955154,369.764465 
	C242.315338,365.622223 245.070694,362.212067 245.648514,358.226379 
z"/>
</svg>

<svg xmlns="http://www.w3.org/2000/svg" width="100%" viewBox="0 0 635 635" height="150" xmlns:v="https://vecta.io/nano"><path fill="#fff" d="M353 636c-116.333 0-232.167-.019-348 .095-3.424.003-4.096-.672-4.095-4.095V5C.904 1.577 1.576.904 5 .906h627c3.423-.002 4.096.67 4.095 4.094v627c.002 3.423-.669 4.101-4.094 4.096L353 636z"/><path fill="#1c1b1d" d="M231.98 341.923c-7.08-8.72-10.389-18.53-11.956-29.058-.296-1.988.376-4.768-3.503-2.542-2.831 1.625-5.069-.527-6.491-3.005-2.128-3.709-2.812-7.864-2.683-12.034.802-25.958 8.109-49.493 26.712-68.446 15.357-15.646 34.747-23.067 56.034-26.053 15.739-2.208 31.508-2.321 47.266.171 6.733 1.064 13.59.745 20.366 1.779 52.448 8.008 69.738 51.915 66.231 86.25-.425 4.162-1.41 8.21-3.237 11.983-2.154 4.449-5.515 7.031-11.179 6.294-7.419-.503-9.438-6.444-12.805-11.46-1.353 1.04-1.789 2.689-2.692 3.943-5.269 7.316-13.826 7.448-19.177.076-4.315-5.944-4.746-13.065-5.083-20.03-.266-5.48-.193-10.962-1.103-16.407-1.102-6.596-2.865-7.403-8.022-3.244-1.943 1.567-3.339 1.374-5.238-.111-3.878-3.033-5.426-2.559-7.183 2.109-2.421 6.431-3.558 13.13-3.976 19.993-.375 6.164-1.109 12.229-5.375 17.291-6.779 8.042-18.521 5.596-21.146-3.503-.246.62.079-.419-.057-.065-3.193 8.28-9.527 11.49-17.994 11.337-1-.018-2.291.015-2.871-.656-4.597-5.316-8.206-2.169-12.843.467-4.954 2.817-10.667 1.911-15.849-1.846-3.09-1.856-2.712-5.586-5.342-7.822-2.49 3.996-3.709 9.758-9.701 9.352-5.561-.377-6.121-5.791-8.058-10.166-3.388 3.212-4.447 8.815-10.206 8.604-5.251-.192-7.729-3.747-9.688-8.638-1.807 3.078-2.367 5.853-3.428 8.678 1.743-4.05 3.962-4.364 7.297-1.797 3.791 2.918 7.881 3.374 11.724-.295 2.803-2.676 4.849-1.355 7.068 1.119 3.511 3.915 6.499 4.236 9.972 1.598 5.548-4.215 5.548-4.215 10.88.511 1.614 10.334.494 20.204-1.34 30.02-.492 2.632-1.732 5.024-3.532 7.061-1.698 1.921-3.699 2.896-6.174 1.525-7.502-4.155-15.276-5.355-23.493-2.357-.629.229-1.313.021-2.125-.627z"/><path fill="#a6a6a6" d="M267.516 304.207c3.414.784 6.212 3.048 9.922 3.013 6.131-.057 10.418-2.862 13.438-8.895 3.049 6.158 7.452 9.34 14.113 7.442 5.944-1.693 10.006-5.626 12.561-11.674 3.029 5.862 6.869 10.363 13.797 8.652 7.343-1.814 9.907-7.741 10.86-14.587.938-6.738.822-13.615 2.674-20.231.492-1.758.904-3.549 1.548-5.251 1.052-2.781 1.856-6.197 5.195-6.798 3.452-.621 4.187 3.184 6.09 5.082 1.565.1 1.732-1.339 2.399-2.162 1.475-1.822 2.864-3.983 5.598-3.386 2.692.588 3.384 3.15 3.863 5.372 1.053 4.885 1.306 9.88 1.326 14.877.023 5.844.66 11.619 2.099 17.285.658 2.593 1.714 5.039 3.478 7.11 4.94 5.799 12.047 5.469 16.379-.898 1.463-2.15 2.484-4.6 3.988-7.444 2.379 6.577 5.268 12.3 12.024 15.29.127 7.769-1.006 15.15-2.605 22.473-1.159 5.306 1.55 10.083 2.142 15.167 2.828 24.29-6.061 52.181-38.387 60.27-13.694 3.427-27.549 4.731-41.579 4.03-4.359-.218-6.153.884-5.553 5.424.347 2.621-.315 5.39.137 7.978 1.139 6.53-2.247 9.743-7.716 11.995-13.489 5.554-26.912 5.039-40.391.034-4.481-1.664-6.289-4.411-5.975-9.493.886-14.352.185-28.618-4.853-42.342-2.51-6.838-2.501-6.862-8.945-3.595-16.623 8.427-30.131 2.032-33.569-16.026-1.224-6.428 1.695-11.645 5.684-16.357 1.287-1.521 2.746-2.897 4.329-4.677 9.594-3.588 18.705-3.791 27.276 2.105 2.063 1.419 3.087-.372 4.056-1.575 2.83-3.512 3.48-7.802 4.048-12.113 1.026-7.783.685-15.611.779-23.888-.315-.906-.421-1.376-.229-2.206z"/><path fill="#030203" d="M267.45 303.635c.26.703.288 1.164.268 1.968-3.806-3.411-6.408-1.84-9.69 1.547-3.388 3.496-8.16 2.179-11.773-2.816-1.634-2.259-2.528-2.368-4.574-.576-4.935 4.323-8.627 4.643-13.713.409-3.207-2.67-3.955-1.489-4.769 1.54-.326 1.214-.486 3.231-2.144 2.716-1.681-.522-1.164-2.512-.715-3.875.933-2.834 2.016-5.621 3.117-8.396.287-.723.596-1.681 1.609-1.682 1.224-.002 1.721.932 1.838 1.964.235 2.064.989 3.866 2.459 5.321 3.403 3.368 8.426 2.945 11.141-1.007.935-1.361 1.576-2.925 2.34-4.402.539-1.042 1.039-2.29 2.494-1.946 1.335.316 1.659 1.546 1.627 2.765-.047 1.753.689 3.234 1.465 4.706 2.58 4.892 6.951 5.239 10.155.816.194-.267.263-.655.502-.855 2.097-1.761.668-6.875 3.954-6.312 2.956.507 2.994 5.043 4.41 8.115z"/><path d="M375.182 369.969c1.402-.157 2.547-.259 2.812 1.007.362 1.733-1.065 2.255-2.277 2.759-11.17 4.64-22.742 7.364-34.903 6.909-10.914-.408-21.34-2.993-31.226-7.648-1.504-.708-4.301-.992-3.254-3.425 1.075-2.5 3.229-.586 4.69.076 21.205 9.615 42.446 9.523 64.159.322zm-129.533-11.743c-4.211-2.556-7.94-2.11-11.556.38-.97.668-2.067 1.5-2.938.038-.763-1.281.229-2.122 1.137-2.927 3.33-2.952 9.222-3.55 13.648-1.335 4.186 2.095 6.916 5.632 9.337 9.47.641 1.016 1.304 2.192.159 3.123-1.278 1.039-2.005-.175-2.812-1.035-1.222-1.302-1.646-4.484-4.101-3.169-2.287 1.225-1.794 4.057-1.261 6.385.347 1.514 1.922 3.629-.28 4.269-2.413.702-2.411-2.11-3.025-3.661-1.64-4.142 1.116-7.552 1.693-11.538z" fill="#131313"/></svg>
